X:76
T:Cut and Dry Dolly
Z:Jack Campin, http://www.campin.me.uk/
S:Northumbrian Minstrelsy
M:2/4
L:1/8
K:G
g   |d/B/A/G/ TB2 |d/B/A/G/ g/f/e/f/|gG TB2|Gdd
g   |d/B/A/G/  B2 |d/B/A/G/ g/f/e/f/|gA Tc2|Aee:|
f   |g>e```````f>d|e>c``````d>B     |gG TB2|Bdd
e/f/|g>e```````f>d|e>c``````d>B     |gA Tc2|Aee:|

